src/assets/outline/CallOutgoing.svg

<?xml version="1.0" encoding="UTF-8"?>
<svg width="24" height="24" viewBox="0 0 24 24" xmlns="http://www.w3.org/2000/svg">
 <path d="m17.45 22.75c-1.13 0-2.32-0.27-3.55-0.79-1.2-0.51-2.41-1.21-3.59-2.06-1.17-0.86-2.3-1.82-3.37-2.87-1.06-1.07-2.02-2.2-2.87-3.36-0.86-1.2-1.55-2.4-2.04-3.56-0.52-1.24-0.78-2.44-0.78-3.57 0-0.78 0.14-1.52 0.41-2.21 0.28-0.71 0.73-1.37 1.34-1.94 0.77-0.76 1.65-1.14 2.59-1.14 0.39 0 0.79 0.09 1.13 0.25 0.39 0.18 0.72 0.45 0.96 0.81l2.32 3.27c0.21 0.29 0.37 0.57 0.48 0.85 0.13 0.3 0.2 0.6 0.2 0.89 0 0.38-0.11 0.75-0.32 1.1-0.15 0.27-0.38 0.56-0.67 0.85l-0.68 0.71c0.01 0.03 0.02 0.05 0.03 0.07 0.12 0.21 0.36 0.57 0.82 1.11 0.49 0.56 0.95 1.07 1.41 1.54 0.59 0.58 1.08 1.04 1.54 1.42 0.57 0.48 0.94 0.72 1.16 0.83l-0.02 0.05 0.73-0.72c0.31-0.31 0.61-0.54 0.9-0.69 0.55-0.34 1.25-0.4 1.95-0.11 0.26 0.11 0.54 0.26 0.84 0.47l3.32 2.36c0.37 0.25 0.64 0.57 0.8 0.95 0.15 0.38 0.22 0.73 0.22 1.08 0 0.48-0.11 0.96-0.32 1.41s-0.47 0.84-0.8 1.2c-0.57 0.63-1.19 1.08-1.91 1.37-0.69 0.28-1.44 0.43-2.23 0.43zm-11.86-20c-0.55 0-1.06 0.24-1.55 0.72-0.46 0.43-0.78 0.9-0.98 1.41-0.21 0.52-0.31 1.07-0.31 1.66 0 0.93 0.22 1.94 0.66 2.98 0.45 1.06 1.08 2.16 1.88 3.26s1.71 2.17 2.71 3.18c1 0.99 2.08 1.91 3.19 2.72 1.08 0.79 2.19 1.43 3.29 1.89 1.71 0.73 3.31 0.9 4.63 0.35 0.51-0.21 0.96-0.53 1.37-0.99 0.23-0.25 0.41-0.52 0.56-0.84 0.12-0.25 0.18-0.51 0.18-0.77 0-0.16-0.03-0.32-0.11-0.5-0.03-0.06-0.09-0.17-0.28-0.3l-3.32-2.36c-0.2-0.14-0.38-0.24-0.55-0.31-0.22-0.09-0.31-0.18-0.65 0.03-0.2 0.1-0.38 0.25-0.58 0.45l-0.76 0.75c-0.39 0.38-0.99 0.47-1.45 0.3l-0.27-0.12c-0.41-0.22-0.89-0.56-1.42-1.01-0.48-0.41-1-0.89-1.63-1.51-0.49-0.5-0.98-1.03-1.49-1.62-0.47-0.55-0.81-1.02-1.02-1.41l-0.12-0.3c-0.06-0.23-0.08-0.36-0.08-0.5 0-0.36 0.13-0.68 0.38-0.93l0.75-0.78c0.2-0.2 0.35-0.39 0.45-0.56 0.08-0.13 0.11-0.24 0.11-0.34 0-0.08-0.03-0.2-0.08-0.32-0.07-0.16-0.18-0.34-0.32-0.53l-2.32-3.28c-0.1-0.14-0.22-0.24-0.37-0.31-0.16-0.07-0.33-0.11-0.5-0.11zm8.36 12.26-0.16 0.68 0.27-0.7c-0.05-0.01-0.09 0-0.11 0.02z"/>
 <path d="m20 9.55c-0.41 0-0.75-0.34-0.75-0.75v-4.05h-4.05c-0.41 0-0.75-0.34-0.75-0.75s0.34-0.75 0.75-0.75h4.8c0.41 0 0.75 0.34 0.75 0.75v4.8c0 0.41-0.34 0.75-0.75 0.75z"/>
</svg>

<svg width="24" height="24" viewBox="0 0 24 24"  xmlns="http://www.w3.org/2000/svg">
<path d="M17.45 22.75C16.32 22.75 15.13 22.48 13.9 21.96C12.7 21.45 11.49 20.75 10.31 19.9C9.14 19.04 8.01 18.08 6.94 17.03C5.88 15.96 4.92 14.83 4.07 13.67C3.21 12.47 2.52 11.27 2.03 10.11C1.51 8.87 1.25 7.67 1.25 6.54C1.25 5.76 1.39 5.02 1.66 4.33C1.94 3.62 2.39 2.96 3 2.39C3.77 1.63 4.65 1.25 5.59 1.25C5.98 1.25 6.38 1.34 6.72 1.5C7.11 1.68 7.44 1.95 7.68 2.31L10 5.58C10.21 5.87 10.37 6.15 10.48 6.43C10.61 6.73 10.68 7.03 10.68 7.32C10.68 7.7 10.57 8.07 10.36 8.42C10.21 8.69 9.98 8.98 9.69 9.27L9.01 9.98C9.02 10.01 9.03 10.03 9.04 10.05C9.16 10.26 9.4 10.62 9.86 11.16C10.35 11.72 10.81 12.23 11.27 12.7C11.86 13.28 12.35 13.74 12.81 14.12C13.38 14.6 13.75 14.84 13.97 14.95L13.95 15L14.68 14.28C14.99 13.97 15.29 13.74 15.58 13.59C16.13 13.25 16.83 13.19 17.53 13.48C17.79 13.59 18.07 13.74 18.37 13.95L21.69 16.31C22.06 16.56 22.33 16.88 22.49 17.26C22.64 17.64 22.71 17.99 22.71 18.34C22.71 18.82 22.6 19.3 22.39 19.75C22.18 20.2 21.92 20.59 21.59 20.95C21.02 21.58 20.4 22.03 19.68 22.32C18.99 22.6 18.24 22.75 17.45 22.75ZM5.59 2.75C5.04 2.75 4.53 2.99 4.04 3.47C3.58 3.9 3.26 4.37 3.06 4.88C2.85 5.4 2.75 5.95 2.75 6.54C2.75 7.47 2.97 8.48 3.41 9.52C3.86 10.58 4.49 11.68 5.29 12.78C6.09 13.88 7 14.95 8 15.96C9 16.95 10.08 17.87 11.19 18.68C12.27 19.47 13.38 20.11 14.48 20.57C16.19 21.3 17.79 21.47 19.11 20.92C19.62 20.71 20.07 20.39 20.48 19.93C20.71 19.68 20.89 19.41 21.04 19.09C21.16 18.84 21.22 18.58 21.22 18.32C21.22 18.16 21.19 18 21.11 17.82C21.08 17.76 21.02 17.65 20.83 17.52L17.51 15.16C17.31 15.02 17.13 14.92 16.96 14.85C16.74 14.76 16.65 14.67 16.31 14.88C16.11 14.98 15.93 15.13 15.73 15.33L14.97 16.08C14.58 16.46 13.98 16.55 13.52 16.38L13.25 16.26C12.84 16.04 12.36 15.7 11.83 15.25C11.35 14.84 10.83 14.36 10.2 13.74C9.71 13.24 9.22 12.71 8.71 12.12C8.24 11.57 7.9 11.1 7.69 10.71L7.57 10.41C7.51 10.18 7.49 10.05 7.49 9.91C7.49 9.55 7.62 9.23 7.87 8.98L8.62 8.2C8.82 8 8.97 7.81 9.07 7.64C9.15 7.51 9.18 7.4 9.18 7.3C9.18 7.22 9.15 7.1 9.1 6.98C9.03 6.82 8.92 6.64 8.78 6.45L6.46 3.17C6.36 3.03 6.24 2.93 6.09 2.86C5.93 2.79 5.76 2.75 5.59 2.75ZM13.95 15.01L13.79 15.69L14.06 14.99C14.01 14.98 13.97 14.99 13.95 15.01Z" />
<path d="M20.0002 9.55C19.5902 9.55 19.2502 9.21 19.2502 8.8V4.75H15.2002C14.7902 4.75 14.4502 4.41 14.4502 4C14.4502 3.59 14.7902 3.25 15.2002 3.25H20.0002C20.4102 3.25 20.7502 3.59 20.7502 4V8.8C20.7502 9.21 20.4102 9.55 20.0002 9.55Z" />
</svg>
